X:300
T: Bean Phidn
S: "The Ted Furey Collection of Irish Traditional Tunes"
Z: B.Black
L: 1/8
M: 9/8
R: slip jig
K: G
d | BAG Bdd Bdd | BAG BdB A2 G | BAG Bdd Bdd |\
edd gdB A2 :|
G | def gbg age | def gbg a2 g | def gbg agg |\
edd gdB A2 :|
